svgs/sharp-regular/octagon-divide.svg

<svg xmlns="http://www.w3.org/2000/svg" viewBox="0 0 512 512"><!--! Font Awesome Pro 6.6.0 by @fontawesome - https://fontawesome.com License - https://fontawesome.com/license (Commercial License) Copyright 2024 Fonticons, Inc. --><path d="M48 332.1l0-152.2L179.9 48l152.2 0L464 179.9l0 152.2L332.1 464l-152.2 0L48 332.1zM160 0L0 160 0 352 160 512l192 0L512 352l0-192L352 0 160 0zM288 128l-64 0 0 64 64 0 0-64zM168 232l-24 0 0 48 24 0 176 0 24 0 0-48-24 0-176 0zm56 88l0 64 64 0 0-64-64 0z"/></svg>

<svg xmlns="http://www.w3.org/2000/svg" viewBox="0 0 512 512"><!--! Font Awesome Pro 6.4.0 by @fontawesome - https://fontawesome.com License - https://fontawesome.com/license (Commercial License) Copyright 2023 Fonticons, Inc. --><path d="M48 332.1V179.9L179.9 48H332.1L464 179.9V332.1L332.1 464H179.9L48 332.1zM160 0L0 160V352L160 512H352L512 352V160L352 0H160zM288 128H224v64h64V128zM168 232H144v48h24H344h24V232H344 168zm56 88v64h64V320H224z"/></svg>
